X: 1289
T: The Black Mask
B: australian traditional tunes wiki
M:3/4
L:1/8
R: Waltz Mazurka
Q: 1/4=100
K:D
V:1 
"D"Ad fd fd|Ad fd fd|"A7"A2g2f2|e4A2|Ac ec ec|Ac ec ec|"D"A2f2e2|f4A2|
"D"Ad fd fd|Ad fd fd|"G"Bd gd gd|Bd gd gd|"A7"a2b2a2|((3gag) f2e2|"D"d4dd|d2c2=c2||
"G"B3A (B/c/d)|e2d2B2|"D"A3F Ad|((3fgf) e2d2|"A7"c3B ce|((3gag) f2a2|"D"f3e (d/c/B)|A2F2A2|
"G"B3A (B/c/d)|e2d2B2|"D"A3F Ad|((3fgf) e2d2|"A7"c3B ce|((3gag) f2e2|"D"d2f2e2|d6||
% abcbook-tune_id 6342d53a3a389c2b811fc437


% abcbook-boost 0
% abcbook-tablature 
% abcbook-transpose 
% abcbook-lastupdated 1665324357562
% abcbook-soundfonts 
% abcbook-repeats 1
% NFF Book 2015

